X:1
T:Title
%%score 1 { 2 | 3 }
L:1/8
Q:1/4=100
M:4/4
K:C
V:1 treble nm="Grand Piano, Soprano"
V:2 bass nm="Choir Pad, The City of Refuge"
V:3 bass 
V:1
 CE [EG]2 [EG]>[FA] [EG]2 | [CE][CG] [Ec]2 [Ec]>[Fd] [Fc]2- | [Fc][GB] [FA]2 [FA][FB] [FA]2 | %3
w: By~~Francis~Augustus~Blackmer~ * * * * *|||
 [EG][CE] [CE]2 [B,D]>[_B,^C] [=B,D]2 | CE [EG]2 [EG]>[FA] [EG]2 | %5
w: ||
 [CE][CG] [Ec]2 [Ec]>[Fd] [Ec]2- | [Ec][GB] [FA]2 [FA][FB] [FA]2 | [^Fd][Fc] [GB]2 [GB]>[FA] G2- | %8
w: |||
 G[EG] [Ec]2- [Ec][Ec] [DB]2- | [DB][DB] [FA]2 [FB]>[FA] [EG]2- | [EG][EG] [EG]2 [FA][FB] [Ec]2 | %11
w: |||
 [EG][Ec] [DB]2 [DB][Ec] [Fd]2- | [Fd][FG] [Ec]2- [Ec][Ec] [DB]2- | %13
w: ||
 [DB][DB] [FA]2 [FB]>[FA] [EG]2- | [EG][EG] [EG]2 [Ec][Fd][Ge][Ec] | %15
w: ||
 z [EG] [FA]2 [DB]>[Ec] [Ec]2- | [Ec]6 z2 |] %17
w: ||
V:2
 E,G, C2 C>C C2 | G,E, G,2 G,>G, G,2 | CC C2 CC C2 | C[K:bass]G, G,2 G,>G, G,2 | %4
w: 1.~~ * * * * *||||
 E,G,[K:treble] C2 C>C C2 | G,[K:bass]E, G,2 G,>G, G,2 | CC C2 CCC[K:bass]A, | A,A, D2 D>C B,2- | %8
w: ||||
 B,G, G,2- G,G, G,2- | G,G, B,2 B,>B,[K:treble] C2- | CC C2 C[K:bass]G, G,2 | CG, G,2 G,G, G,2- | %12
w: ||||
 G,G, G,2- G,G, G,2- | G,G, B,2 B,>B,[K:treble] C2- | CC C2 CB,CC | z C[K:bass] C2 G,>G, G,2- | %16
w: ||||
 G,6 z2 |] %17
w: |
V:3
 C,2 C,2 C,>C, C,2 | C,C, C,2 C,>C, C,2- | C,E, F,2 F,F, C,2 | C,C, G,,2 G,,>G,, G,,2 | %4
 C,2 C,2 C,>C, C,2 | C,C, C,2 C,>C, C,2- | C,E, F,2 F,F, F,2 | D,D, D,2 D,>D, G,,2- | %8
 G,,C, C,2- C,C, G,,2- | G,,G,, G,,2 G,,>G,, C,2- | C,C, C,2 C,C, C,2 | C,C, z2 z4 | %12
 z2 C,2- C,C, G,,2- | G,,G,, G,,2 G,,>G,, C,2- | C,C, C,2 C,C,C,C, | z C, F,2 z2 C,2- | C,6 z2 |] %17

